teeny/solid/sort-alphabetically.svg

<svg width="15" height="15" viewBox="0 0 15 15" fill="none" xmlns="http://www.w3.org/2000/svg">
<path fill-rule="evenodd" clip-rule="evenodd" d="M3.00001 13.2929V0H4.00001V13.2929L6.14645 11.1464L6.85356 11.8536L3.85356 14.8536C3.75979 14.9473 3.63262 15 3.50001 15C3.3674 15 3.24022 14.9473 3.14645 14.8536L0.146454 11.8536L0.853561 11.1464L3.00001 13.2929ZM11.5 1C10.6716 1 10 1.67157 10 2.5V4H13V2.5C13 1.67157 12.3284 1 11.5 1ZM13 5V7H14V2.5C14 1.11929 12.8807 0 11.5 0C10.1193 0 9.00001 1.11929 9.00001 2.5V7H10V5H13ZM9.00001 8H12C13.1046 8 14 8.89543 14 10C14 10.5973 13.7381 11.1335 13.3229 11.5C13.7381 11.8665 14 12.4027 14 13C14 14.1046 13.1046 15 12 15H9.00001V8ZM12 11C12.5523 11 13 10.5523 13 10C13 9.44772 12.5523 9 12 9H10V11H12ZM10 12H12C12.5523 12 13 12.4477 13 13C13 13.5523 12.5523 14 12 14H10V12Z" fill="black"/>
</svg>

<svg viewBox="0 0 15 15" xmlns="http://www.w3.org/2000/svg"><path fill-rule="evenodd" d="M3 13.29V-.01h1v13.29l2.14-2.15 .7.7 -3 3c-.1.09-.23.14-.36.14 -.14 0-.26-.06-.36-.15l-3-3 .7-.71 2.14 2.14ZM11.49.99c-.83 0-1.5.67-1.5 1.5v1.5h3v-1.5c0-.83-.68-1.5-1.5-1.5Zm1.5 4v2h1v-4.5c0-1.39-1.12-2.5-2.5-2.5 -1.39 0-2.5 1.11-2.5 2.5v4.5h.99v-2h3Zm-4 3h2.99c1.1 0 2 .89 2 2 0 .59-.27 1.13-.68 1.5 .41.36.67.9.67 1.5 0 1.1-.9 2-2 2h-3v-7Zm2.99 3c.55 0 1-.45 1-1 0-.56-.45-1-1-1h-2v2h2Zm-2 1h2c.55 0 1 .44 1 1 0 .55-.45 1-1 1h-2v-2Z"/></svg>
